icons/logo-deviantart.svg

<svg
  width="24"
  height="24"
  viewBox="0 0 24 24"
  xmlns="http://www.w3.org/2000/svg"
  fill="none"
  stroke="currentColor"
  stroke-width="2"
  stroke-linecap="round"
  stroke-linejoin="round"
>
  <path d="M18 3v4l-3.857 6H18v4h-6.429L9 21H6v-4l3.857-6H6V7h6.429L15 3h3z" />
</svg>

<svg width="24" height="24" viewBox="0 0 24 24" fill="none" xmlns="http://www.w3.org/2000/svg">
<path d="M18 3V7L14.143 13H18V17H11.571L9 21H6V17L9.857 11H6V7H12.429L15 3H18Z" stroke="#1E293B" stroke-width="2" stroke-linecap="round" stroke-linejoin="round"/>
</svg>
